!!!COM: Fanny (Mendelssohn) Hensel
!!!CNT: Deutsch
!!!TXO: Deutsch
!!!OTL: "Die Schiffende"
!!!LYR: Ho2lty, Ludwig
!!!OPR: 
!!!OPS: Op. 
!!!ONM: No. 
!!!ENC: Emily Thomas
!!!YOR: Hensel: Ausgewa2hlte Lieder fu2r Singstimme und Klavier
!!!YOR: Breitkopf & Hartel, 1994
!!!ODT: 1827/
!!NB: Vocal melody and text encoded.
**kern	**silbe
=1-	=1
*clefG2	*
*k[f#c#g#]	*
*M6/8	*
*MM[Allegretto grazioso]	*
2.r	.
=2	=2
4r	.
8r	.
4r	.
{8e	{Sie
=3	=3
[4.ee	wankt
4dd]	|
8g#	da-
=4	=4
4.a}	-hin,}
4r	.
{8a	{die
=5	=5
4a	A-
8b	-bend-
8cc#	-win-
8dd	|
8ee	-de
=6	=6
4.ff#	spie-
4ee	-len
8dd	ihr
=7	=7
[4.cc#	Ap-
8cc#]	|
8dd#	|
8ee	-fel-
=8	=8
4.ee	-blu2-
4.b	-ten
=9	=9
4.g#}	zu;}
4r	.
8r	.
=10	=10
{4.ddn	{die
4dd	Vo2-
8b	-ge-
=11	=11
4.dd}	-lein,}
4r	.
{8cc#	{so
=12	=12
4b	ih-
8b	-re
4ee	Na2-
8dd	-he
=13	=13
4.dd	fu2h-
4cc#}	-len,}
{8f#	{er-
=14	=14
[4.ff#	-wa-
8ff#]	|
8dd	|
8b	-chen
=15	=15
[4.ee	aus
8ee]	|
8cc#	}
8a#	der
=16	=16
4.b}	Ruh.}
4r	.
8r	.
=17	=17
2.r	.
=18	=18
{4.b	{Wie
4b	ihr
8gn	Ge-
=19	=19
4.f#	-wand
4r	.
8b	im
=20	=20
4ccn	Mon-
8b	-den-
4ccn	-glan-
8dd	-ze
=21	=21
4.ccn	flit-
4b}	-tert}
8r	.
=22	=22
{4.b	{und
4cc#	ih-
8cc#	-res
=23	=23
4.dd	Bu-
4.ee	-sens
=24	=24
2.ffn}	Flor,}
=25	=25
4r	.
8r	.
4r	.
{8b	{sie
=26	=26
[2.ee	wankt
=27	=27
4.ee	|
4ee]	|
8g#	da-
=28	=28
4.a}	-hin,}
4r	.
{8a	{der
=29	=29
[4.ggn	hel-
8ggn]	|
8ee	|
8cc#	-le
=30	=30
[4.gn	Voll-
8gn]	|
8b	|
8a	-mond
=31	=31
4gn	zit-
8f#}	-tert}
4r	.
{8a	{aus
=32	=32
[2.dd	je-
=33	=33
4.dd	|
8dd]	|
8ff#	|
8ee	-der
=34	=34
8cc#	Well'
8ee	|
8dd	|
8b	|
8dd	|
8cc#	her-
=35	=35
4.a}	vor.}
4r	.
8r	.
==	==
*-	*-
